apps/www/public/images/logos/publicity/archive/humata.svg

<svg width="114" height="19" viewBox="0 0 114 19" fill="none" xmlns="http://www.w3.org/2000/svg">
<path fill-rule="evenodd" clip-rule="evenodd" d="M3.76891 3.19437C3.25351 3.19437 2.83571 3.61214 2.83571 4.12755V14.3927C2.83571 14.9081 3.25351 15.3259 3.76891 15.3259H7.03505V18.1255H3.76891C1.70736 18.1255 0.0361328 16.4542 0.0361328 14.3927V4.12755C0.0361328 2.06602 1.70736 0.394806 3.76891 0.394806H7.03505V3.19437H3.76891Z" fill="#B4B4B4"/>
<path fill-rule="evenodd" clip-rule="evenodd" d="M22.4327 15.3259C22.9481 15.3259 23.3659 14.9081 23.3659 14.3927V4.12758C23.3659 3.61217 22.9481 3.1944 22.4327 3.1944H19.1665V0.394836H22.4327C24.4942 0.394836 26.1655 2.06605 26.1655 4.12758V14.3927C26.1655 16.4543 24.4942 18.1255 22.4327 18.1255H19.1665V15.3259H22.4327Z" fill="#B4B4B4"/>
<path d="M21.9655 9.21861C21.9655 8.09382 21.1399 7.14079 20.0262 6.98011C17.6409 6.59225 15.7709 4.71945 15.3858 2.33413C15.2196 1.22319 14.2665 0.397607 13.1417 0.394836H13.0586C11.9338 0.394836 10.9808 1.22042 10.8201 2.33413C10.4323 4.71945 8.55948 6.58948 6.17415 6.97457C5.06322 7.14079 4.23763 8.09382 4.23486 9.21861V9.30172C4.23486 10.4265 5.06045 11.3795 6.17415 11.5402C8.55948 11.9281 10.4295 13.8009 10.8146 16.1862C10.9808 17.2971 11.9338 18.1227 13.0586 18.1255H13.1417C14.2665 18.1255 15.2196 17.2999 15.3802 16.1862C15.7681 13.8009 17.6409 11.9308 20.0262 11.5458C21.1372 11.3795 21.9627 10.4265 21.9655 9.30172V9.21861ZM18.641 9.29341C18.641 9.31557 18.6105 9.33496 18.5801 9.3405C15.8041 9.79208 13.6266 11.9696 13.1722 14.7456C13.1722 14.7761 13.1501 14.801 13.1334 14.801H13.0642C13.042 14.801 13.0226 14.7705 13.0171 14.74C12.5655 11.9641 10.3907 9.78654 7.612 9.33219C7.58152 9.33219 7.55659 9.31003 7.55659 9.29341V9.22415C7.55659 9.20198 7.58706 9.18259 7.61754 9.17705C10.3935 8.72547 12.571 6.54793 13.0254 3.77197C13.0254 3.7415 13.0476 3.71656 13.0642 3.71656H13.1334C13.1556 3.71656 13.175 3.74704 13.1805 3.77751C13.6321 6.55347 15.8069 8.73101 18.5856 9.18536C18.6161 9.18536 18.641 9.20752 18.641 9.22415V9.29341Z" fill="#B4B4B4"/>
<path d="M46.5058 0.394836H49.5545V17.858H46.5058V10.2208H38.3123V17.858H35.2637V0.394836H38.3123V7.49685H46.5058V0.394836Z" fill="#B4B4B4"/>
<path d="M62.1053 5.08888V17.8579H59.2471V16.4959C58.5326 17.3472 57.4608 18.1255 55.8412 18.1255C53.2211 18.1255 51.6016 16.3013 51.6016 13.5529V5.08888H54.4596V12.9206C54.4596 14.4772 55.1266 15.4744 56.6747 15.4744C57.9609 15.4744 59.2471 14.5015 59.2471 12.6774V5.08888H62.1053Z" fill="#B4B4B4"/>
<path d="M66.99 10.3669V17.8581H64.1318V5.08906H66.99V6.45111C67.6807 5.59982 68.7526 4.84593 70.4198 4.84593C71.9204 4.84593 73.0398 5.5269 73.7305 6.62143C74.4927 5.79441 75.6836 4.84593 77.6129 4.84593C80.1852 4.84593 81.8524 6.69435 81.8524 9.44271V17.8581H78.9943V10.294C78.9943 8.7131 78.4226 7.56991 76.8983 7.56991C75.6836 7.56991 74.4213 8.54277 74.4213 10.3669V17.8581H71.5631V10.294C71.5631 8.7131 70.9915 7.56991 69.4671 7.56991C68.2523 7.56991 66.99 8.54277 66.99 10.3669Z" fill="#B4B4B4"/>
<path d="M87.3593 18.077C84.9776 18.077 83.1436 16.5934 83.1436 14.3071C83.1436 11.8749 84.9299 10.8048 87.3355 10.294L90.7891 9.56428V9.34542C90.7891 8.12931 90.1699 7.37532 88.6455 7.37532C87.2879 7.37532 86.5733 8.00775 86.2399 9.24812L83.5485 8.6158C84.1677 6.49976 86.0017 4.84593 88.7646 4.84593C91.7656 4.84593 93.5758 6.30516 93.5758 9.24812V14.7448C93.5758 15.4746 93.8854 15.6934 94.6715 15.5961V17.8581C92.5993 18.1014 91.5037 17.6878 91.0749 16.642C90.289 17.542 88.9789 18.077 87.3593 18.077ZM90.7891 13.3585V11.802L88.0977 12.3857C86.8829 12.6532 85.9779 13.0424 85.9779 14.1854C85.9779 15.1827 86.6925 15.7421 87.7881 15.7421C89.3124 15.7421 90.7891 14.9152 90.7891 13.3585Z" fill="#B4B4B4"/>
<path d="M96.2495 14.6475V7.56977H94.5107V5.08892H96.2495V1.3434H99.06V5.08892H101.68V7.56977H99.06V14.1853C99.06 15.3285 99.703 15.45 100.727 15.45C101.204 15.45 101.466 15.4258 101.894 15.3771V17.8336C101.37 17.9309 100.656 18.0039 99.9175 18.0039C97.5357 18.0039 96.2495 17.2499 96.2495 14.6475Z" fill="#B4B4B4"/>
<path d="M106.631 18.077C104.25 18.077 102.416 16.5934 102.416 14.3071C102.416 11.8749 104.202 10.8048 106.608 10.294L110.061 9.56428V9.34542C110.061 8.12931 109.442 7.37532 107.917 7.37532C106.56 7.37532 105.845 8.00775 105.512 9.24812L102.82 8.6158C103.44 6.49976 105.274 4.84593 108.036 4.84593C111.038 4.84593 112.848 6.30516 112.848 9.24812V14.7448C112.848 15.4746 113.158 15.6934 113.944 15.5961V17.8581C111.871 18.1014 110.775 17.6878 110.347 16.642C109.561 17.542 108.251 18.077 106.631 18.077ZM110.061 13.3585V11.802L107.37 12.3857C106.155 12.6532 105.25 13.0424 105.25 14.1854C105.25 15.1827 105.965 15.7421 107.06 15.7421C108.585 15.7421 110.061 14.9152 110.061 13.3585Z" fill="#B4B4B4"/>
</svg>

<svg xmlns="http://www.w3.org/2000/svg" width="114" height="19" fill="none" viewBox="0 0 114 19"><path fill="#b4b4b4" fill-rule="evenodd" d="M3.769 3.194a.933.933 0 0 0-.933.934v10.265c0 .515.418.933.933.933h3.266v2.8H3.769a3.733 3.733 0 0 1-3.733-3.733V4.128A3.733 3.733 0 0 1 3.77.395h3.266v2.8zM22.433 15.326a.933.933 0 0 0 .933-.933V4.128a.933.933 0 0 0-.933-.934h-3.267v-2.8h3.267a3.733 3.733 0 0 1 3.733 3.734v10.265a3.733 3.733 0 0 1-3.733 3.732h-3.267v-2.8z" clip-rule="evenodd"/><path fill="#b4b4b4" d="M21.966 9.219a2.26 2.26 0 0 0-1.94-2.239 5.615 5.615 0 0 1-4.64-4.646 2.276 2.276 0 0 0-2.244-1.94h-.083a2.26 2.26 0 0 0-2.239 1.94 5.61 5.61 0 0 1-4.646 4.64 2.276 2.276 0 0 0-1.94 2.245v.083c0 1.125.826 2.078 1.94 2.238a5.615 5.615 0 0 1 4.64 4.646 2.276 2.276 0 0 0 2.245 1.94h.083a2.26 2.26 0 0 0 2.238-1.94 5.615 5.615 0 0 1 4.646-4.64 2.276 2.276 0 0 0 1.94-2.244zm-3.325.074c0 .023-.03.042-.06.048a6.55 6.55 0 0 0-5.409 5.405c0 .03-.022.055-.039.055h-.069c-.022 0-.041-.03-.047-.061a6.545 6.545 0 0 0-5.405-5.408c-.03 0-.055-.022-.055-.039v-.069c0-.022.03-.041.06-.047a6.55 6.55 0 0 0 5.408-5.405c0-.03.023-.055.04-.055h.068c.023 0 .042.03.048.06a6.54 6.54 0 0 0 5.405 5.408c.03 0 .055.023.055.04zM46.506.395h3.048v17.463h-3.048v-7.637h-8.194v7.637h-3.048V.395h3.048v7.102h8.194zM62.105 5.089v12.769h-2.858v-1.362c-.714.851-1.786 1.63-3.406 1.63-2.62 0-4.24-1.825-4.24-4.573V5.089h2.859v7.832c0 1.556.667 2.553 2.215 2.553 1.286 0 2.572-.973 2.572-2.797V5.09zM66.99 10.367v7.491h-2.858V5.09h2.858v1.362c.69-.851 1.763-1.605 3.43-1.605 1.5 0 2.62.68 3.31 1.775.763-.827 1.954-1.775 3.883-1.775 2.572 0 4.24 1.848 4.24 4.597v8.415h-2.859v-7.564c0-1.58-.571-2.724-2.096-2.724-1.214 0-2.477.973-2.477 2.797v7.491h-2.858v-7.564c0-1.58-.572-2.724-2.096-2.724-1.215 0-2.477.973-2.477 2.797M87.36 18.077c-2.382 0-4.216-1.484-4.216-3.77 0-2.432 1.786-3.502 4.191-4.013l3.454-.73v-.219c0-1.216-.62-1.97-2.144-1.97-1.357 0-2.072.633-2.405 1.873l-2.691-.632c.619-2.116 2.453-3.77 5.216-3.77 3 0 4.81 1.46 4.81 4.402v5.497c0 .73.31.948 1.096.851v2.262c-2.072.243-3.167-.17-3.596-1.216-.786.9-2.096 1.435-3.716 1.435m3.43-4.719v-1.556l-2.692.584c-1.215.267-2.12.656-2.12 1.8 0 .997.715 1.556 1.81 1.556 1.524 0 3.001-.827 3.001-2.384M96.25 14.648V7.57h-1.74V5.089h1.74V1.343h2.81V5.09h2.62v2.48h-2.62v6.616c0 1.143.643 1.265 1.667 1.265.477 0 .739-.024 1.167-.073v2.457c-.524.097-1.238.17-1.977.17-2.381 0-3.668-.754-3.668-3.357M106.631 18.077c-2.381 0-4.215-1.484-4.215-3.77 0-2.432 1.786-3.502 4.192-4.013l3.453-.73v-.219c0-1.216-.619-1.97-2.144-1.97-1.357 0-2.072.633-2.405 1.873l-2.692-.632c.62-2.116 2.454-3.77 5.216-3.77 3.002 0 4.812 1.46 4.812 4.402v5.497c0 .73.31.948 1.096.851v2.262c-2.073.243-3.169-.17-3.597-1.216-.786.9-2.096 1.435-3.716 1.435m3.43-4.719v-1.556l-2.691.584c-1.215.267-2.12.656-2.12 1.8 0 .997.715 1.556 1.81 1.556 1.525 0 3.001-.827 3.001-2.384"/></svg>
